src/assets/icons/btn-sold.svg

<?xml version="1.0" encoding="UTF-8" standalone="no"?>
<svg width="29px" height="29px" viewBox="0 0 29 29" version="1.1" xmlns="http://www.w3.org/2000/svg" xmlns:xlink="http://www.w3.org/1999/xlink">
    <!-- Generator: Sketch 48.2 (47327) - http://www.bohemiancoding.com/sketch -->
    <title>ic_sold</title>
    <desc>Created with Sketch.</desc>
    <defs></defs>
    <g id="Artboard" stroke="none" stroke-width="1" fill="none" fill-rule="evenodd" transform="translate(-9.000000, -12.000000)">
        <path d="M32.0708396,26.0097917 L28.8107516,23.3847437 L26.7987116,21.7258637 C26.7980636,21.7252157 26.7980636,21.7245677 26.7974156,21.7239197 C26.2200476,21.2469917 25.6796156,21.2022797 25.3309916,21.2489357 C24.5268236,21.3565037 24.0460076,22.0070957 24.0304556,22.0343117 C22.8031436,23.4689837 21.6762716,23.6944877 21.0898316,23.6944877 L21.0496556,23.6944877 C20.7632396,23.6893037 20.5312556,23.6335757 20.3614796,23.5687757 C21.1708316,22.8177437 21.6257276,21.9928397 21.8726156,21.3927917 C22.2743756,20.4156077 23.0610476,19.6256957 24.0304556,19.2265277 C25.1514956,18.7645037 26.3366876,18.9809357 27.1188236,19.2375437 L27.1972316,19.2654077 C27.7104476,19.4481437 28.2929996,19.6555037 28.8872156,19.7481677 C31.0359836,20.0831837 32.5373996,21.7789997 32.5373996,23.8707437 C32.5373996,24.7552637 32.3941916,25.4136317 32.0708396,26.0097917 M31.8991196,28.1812397 L31.6308476,28.4961677 C31.5271676,28.6173437 31.3826636,28.6406717 31.3049036,28.6426157 C31.2899996,28.6419677 31.2750956,28.6367837 31.2601916,28.6354877 L28.9520156,26.7854477 L28.9468316,26.7809117 C28.6649516,26.5612397 28.2573596,26.6098397 28.0363916,26.8910717 C27.8160716,27.1729517 27.8653196,27.5805437 28.1465516,27.8015117 L29.4438476,28.8188717 C29.4542156,28.8311837 29.4581036,28.8473837 29.4684716,28.8590477 L29.6712956,29.0839037 C29.7173036,29.1590717 29.7471116,29.2413677 29.7581276,29.3269037 C29.7665516,29.4033677 29.7671996,29.5498157 29.6628716,29.6716397 L29.3945996,29.9865677 C29.2902716,30.1083917 29.1451196,30.1310717 29.0680076,30.1336637 C28.9999676,30.1349597 28.9235036,30.1207037 28.8476876,30.0947837 L28.2230156,29.5193597 C28.1912636,29.4882557 28.1685836,29.4519677 28.1342396,29.4234557 C28.1212796,29.4124397 28.1057276,29.4091997 28.0921196,29.3994797 L27.3067436,28.6769597 C27.3054476,28.6756637 27.3015596,28.6717757 27.3002636,28.6704797 C27.0332876,28.4320157 26.6237516,28.4553437 26.3852876,28.7229677 C26.1461756,28.9892957 26.1701516,29.3981837 26.4371276,29.6372957 L27.2289836,30.3449117 C27.2302796,30.3468557 27.2309276,30.3487997 27.2322236,30.3500957 L27.4356956,30.5755997 C27.5555756,30.7725917 27.5601116,31.0071677 27.4272716,31.1633357 L27.1583516,31.4776157 C26.9905196,31.6733117 26.6658716,31.6752557 26.4196316,31.4853917 L26.2181036,31.2618317 C26.1701516,31.1957357 26.1047036,31.1387117 26.0470316,31.0765037 C26.0308316,31.0577117 26.0230556,31.0350317 26.0042636,31.0175357 L25.9232636,30.9423677 C25.9128956,30.9339437 25.9070636,30.9229277 25.8973436,30.9145037 C25.8941036,30.9112637 25.8889196,30.9106157 25.8856796,30.9086717 L25.4113436,30.4699757 C25.4055116,30.4647917 25.3977356,30.4576637 25.3912556,30.4524797 C25.1184476,30.2204957 24.7102076,30.2535437 24.4775756,30.5263517 C24.2462396,30.7991597 24.2792876,31.2073997 24.5514476,31.4400317 L24.9648716,31.7918957 C24.9771836,31.8074477 24.9817196,31.8268877 24.9953276,31.8417917 L25.1994476,32.0672957 C25.3193276,32.2636397 25.3232156,32.4988637 25.1910236,32.6543837 L24.9221036,32.9680157 C24.7477916,33.1727837 24.4049996,33.1656557 24.1412636,32.9420957 L23.8509596,32.7094637 C23.8146716,32.6803037 23.7719036,32.6673437 23.7317276,32.6472557 C23.8503116,32.2915037 23.9040956,31.9137197 23.8820636,31.5288077 C23.8360556,30.7337117 23.4828956,30.0047117 22.8880316,29.4759437 L18.9695756,25.9897037 C18.3831356,25.4680637 17.5582316,25.1939597 16.7242556,25.2406157 C16.5181916,25.2522797 16.3160156,25.2833837 16.1196716,25.3306877 C15.9686876,24.8550557 15.8889836,24.3573917 15.8889836,23.8707437 C15.8889836,21.4180637 17.8848236,19.4222237 20.3381516,19.4222237 C20.7237116,19.4222237 21.1001996,19.4766557 21.4669676,19.5719117 C21.1410236,19.9717277 20.8721036,20.4181997 20.6738156,20.8996637 C20.4457196,21.4556477 19.9895276,22.2572237 19.1205596,22.9220717 C18.8620076,23.1197117 18.7466636,23.4281597 18.8108156,23.7476237 C18.9119036,24.2478797 19.4510396,24.6826877 20.2182716,24.8816237 C20.9777276,25.0786157 22.9625516,25.2769037 25.0471676,22.8358877 C25.0996556,22.7652557 25.2966476,22.5591917 25.5065996,22.5332717 C25.6446236,22.5203117 25.7994956,22.5818717 25.9712156,22.7231357 L25.9725116,22.7244317 L31.7649836,27.4276157 C32.0131676,27.6395117 32.0734316,27.9771197 31.8991196,28.1812397 M22.1583836,32.8299917 L22.1434796,32.8481357 C21.9834236,33.0243917 21.7080236,33.0418877 21.5272316,32.8850717 L15.5811836,27.7243997 C15.4917596,27.6472877 15.4386236,27.5390717 15.4308476,27.4198397 C15.4237196,27.3031997 15.4632476,27.1865597 15.5435996,27.0971357 C15.8371436,26.7666557 16.2926876,26.5625357 16.7942396,26.5353197 C16.8318236,26.5327277 16.8700556,26.5320797 16.9082876,26.5320797 C17.3683676,26.5320797 17.8005836,26.6843597 18.1077356,26.9578157 L22.0261916,30.4440557 C22.3631516,30.7434317 22.5620876,31.1549117 22.5880076,31.6046237 C22.6145756,32.0536877 22.4648876,32.4859037 22.1583836,32.8299917 M33.8333996,23.8707437 C33.8333996,21.1251677 31.8816236,18.9031757 29.0867996,18.4670717 C28.6137596,18.3938477 28.1154476,18.2169437 27.6346316,18.0452237 L27.5380796,18.0108797 C26.5317356,17.6810477 25.0218956,17.4160157 23.5366796,18.0283757 C23.1867596,18.1722317 22.8562796,18.3575597 22.5484796,18.5726957 C21.8473436,18.2791517 21.1053836,18.1262237 20.3381516,18.1262237 C17.1700796,18.1262237 14.5929836,20.7033197 14.5929836,23.8707437 C14.5929836,24.5498477 14.7199916,25.2406157 14.9487356,25.8963917 C14.8145996,26.0007197 14.6856476,26.1108797 14.5735436,26.2372397 C14.2663916,26.5813277 14.1076316,27.0433517 14.1374396,27.5027837 C14.1665996,27.9648077 14.3836796,28.4022077 14.7323036,28.7035277 L20.6777036,33.8641997 C21.0042956,34.1473757 21.4099436,34.2853997 21.8142956,34.2853997 C22.2763196,34.2853997 22.7331596,34.1000717 23.0714156,33.7449677 L23.3144156,33.9400157 C23.6850716,34.2555917 24.1347836,34.4111117 24.5754236,34.4111117 C25.0782716,34.4111117 25.5675116,34.2082877 25.9070636,33.8097677 L26.1759836,33.4954877 C26.3302076,33.3146957 26.4397196,33.1105757 26.5058156,32.8947917 C27.1142876,32.9965277 27.7357196,32.7982397 28.1433116,32.3187197 L28.4122316,32.0044397 C28.5664556,31.8249437 28.6759676,31.6201757 28.7420636,31.4050397 C28.8638876,31.4244797 28.9889516,31.4322557 29.1133676,31.4290157 C29.6136236,31.4121677 30.0639836,31.1983277 30.3808556,30.8283197 L30.6484796,30.5133917 C30.8007596,30.3358397 30.9122156,30.1323677 30.9796076,29.9139917 C31.1014316,29.9340797 31.2251996,29.9399117 31.3502636,29.9379677 C31.8511676,29.9211197 32.3008796,29.7072797 32.6171036,29.3372717 L32.8853756,29.0223437 C33.3804476,28.4417357 33.4102556,27.6161837 33.0233996,26.9519837 C33.5871596,26.0791277 33.8333996,25.1323997 33.8333996,23.8707437" id="Fill-14" fill="#607D8B"></path>
    </g>
</svg>

<svg width="29" height="29" viewBox="0 0 29 29" xmlns="http://www.w3.org/2000/svg"><g id="Artboard" fill="none" fill-rule="evenodd" transform="translate(-9 -12)"><path d="M32.07 26.01l-3.26-2.625-2.011-1.66-.002-.001c-.577-.477-1.117-.522-1.466-.475-.804.108-1.285.758-1.3.785-1.228 1.435-2.355 1.66-2.941 1.66h-.04a2.039 2.039 0 0 1-.689-.125 6.198 6.198 0 0 0 1.512-2.176 3.999 3.999 0 0 1 2.157-2.166c1.121-.462 2.307-.246 3.089.01l.078.028c.513.183 1.096.39 1.69.483 2.149.335 3.65 2.031 3.65 4.123 0 .884-.143 1.543-.466 2.139m-.172 2.171l-.268.315a.443.443 0 0 1-.326.147c-.015-.001-.03-.006-.045-.008l-2.308-1.85-.005-.004a.65.65 0 0 0-.8 1.02l1.297 1.018c.01.012.014.028.024.04l.203.225a.616.616 0 0 1 .087.243.45.45 0 0 1-.095.345l-.268.315a.447.447 0 0 1-.327.147.66.66 0 0 1-.22-.04l-.625-.575c-.032-.03-.054-.067-.089-.096-.013-.01-.028-.014-.042-.024l-.785-.722-.007-.007a.647.647 0 1 0-.863.967l.792.708.003.005.204.226c.12.197.124.431-.009.587l-.269.315c-.167.195-.492.197-.738.007l-.202-.223c-.048-.066-.113-.123-.171-.185-.016-.02-.024-.042-.043-.06l-.08-.075c-.011-.008-.017-.02-.027-.027-.003-.004-.008-.004-.011-.006l-.475-.439-.02-.018a.648.648 0 1 0-.84.988l.414.352c.012.015.017.035.03.05l.204.225c.12.197.124.432-.008.587l-.269.314c-.174.205-.517.198-.78-.026l-.291-.233c-.036-.029-.08-.042-.12-.062a2.99 2.99 0 0 0 .151-1.118 2.957 2.957 0 0 0-.994-2.053L18.97 25.99c-.587-.522-1.412-.796-2.246-.75a3.402 3.402 0 0 0-.604.09 4.855 4.855 0 0 1-.231-1.46 4.454 4.454 0 0 1 4.45-4.448c.385 0 .761.055 1.128.15-.326.4-.595.846-.793 1.328a4.894 4.894 0 0 1-1.553 2.022.816.816 0 0 0-.31.826c.1.5.64.935 1.407 1.134.76.197 2.745.395 4.83-2.046.052-.07.249-.277.459-.303.138-.013.292.049.464.19l.002.001 5.792 4.704c.248.212.308.55.134.753m-9.74 4.649l-.016.018a.443.443 0 0 1-.616.037l-5.946-5.16a.443.443 0 0 1-.038-.627c.294-.331.75-.535 1.251-.563l.114-.003c.46 0 .893.152 1.2.426l3.918 3.486c.337.3.536.71.562 1.16.027.45-.123.882-.43 1.226m11.675-8.96c0-2.745-1.951-4.967-4.746-5.403-.473-.073-.972-.25-1.452-.422l-.097-.034c-1.006-.33-2.516-.595-4.001.017-.35.144-.68.33-.989.545a5.69 5.69 0 0 0-2.21-.447 5.751 5.751 0 0 0-5.745 5.745c0 .679.127 1.37.356 2.025a2.758 2.758 0 0 0-.375.341 1.744 1.744 0 0 0-.437 1.266c.03.462.247.9.595 1.2l5.946 5.161a1.734 1.734 0 0 0 2.394-.12l.242.196c.371.316.82.471 1.261.471.503 0 .993-.203 1.332-.601l.269-.315c.154-.18.264-.384.33-.6.608.102 1.23-.097 1.637-.576l.27-.315a1.67 1.67 0 0 0 .33-.599c.12.02.246.027.37.024.5-.017.951-.23 1.268-.6l.267-.316a1.68 1.68 0 0 0 .332-.599c.121.02.245.026.37.024.501-.017.95-.23 1.267-.6l.268-.316c.495-.58.525-1.406.138-2.07.564-.873.81-1.82.81-3.081" id="Fill-14" fill="#607D8B"/></g></svg>
